ALTDEU
CUT[Der Schlaftrunk]
REG[Europa, Mitteleuropa, Deutschland]
TRD[]
FKT[]
SIG[A0344]
KEY[A0344   02  F 4/2]
MEL[5_  5565  4_46  5342  1_
    5_  5565  4_46  5342  1_0
    4  442_  2344  2_0
    3  1_11  232_  1_0
    +1  +176_  5_3_  4564  3_.
    4  442_  2344  2_0
    3  1_11  232_  1_0
    +1  +176_  5_3_  4564  3__
    5_53  432_  1_ //]
BEM[]
MEL_SEM[0 0 2 -2 -2 0 4 -2 -3 1 -3 -2 7 0 0 2 -2 -2 0 4 -2 -3 1 -3 -2 5 0 0 -3 0 2 1 0 -3 2 -4 0 0 2 2 -2 -2 12 0 -1 -2 -2 -3 1 2 2 -4 -1 1 0 0 -3 0 2 1 0 -3 2 -4 0 0 2 2 -2 -2 12 0 -1 -2 -2 -3 1 2 2 -4 -1 3 0 -3 1 -1 -2 -2]
MEL_RAW[5  5565  446  5342  1
    5  5565  446  5342  10
    4  442  2344  20
    3  111  232  10
    +1  +176  53  4564  3
    4  442  2344  20
    3  111  232  10
    +1  +176  53  4564  3
    553  432  1]
NO_REP[5654653421
    56546534210
    423420
    3123210
    +1765345643
    423420
    3123210
    +1765345643
    534321]
RTM[x_  xxxx  x_xx  xxxx  x_
    x_  xxxx  x_xx  xxxx  x_x
    x  xxx_  xxxx  x_x
    x  x_xx  xxx_  x_x
    x  xxx_  x_x_  xxxx  x_.
    x  xxx_  xxxx  x_x
    x  x_xx  xxx_  x_x
    x  xxx_  x_x_  xxxx  x__
    x_xx  xxx_  x_]
SCL_DEG[1234567+1]
SCL_SEM[2 2 1 2 2 2 1]

